resources/svg/chat-typing-alt.svg

<svg xmlns="http://www.w3.org/2000/svg" viewBox="0 0 15 15" fill="currentColor"><path fill-rule="evenodd" clip-rule="evenodd" d="M0 7.5C0 3.35786 3.35786 0 7.5 0C11.6421 0 15 3.35786 15 7.5V15H7.5C3.35786 15 0 11.6421 0 7.5ZM4 8H5V7H4V8ZM11 8H10V7H11V8ZM7 8H8V7H7V8Z" fill="black"/></svg>

<svg xmlns="http://www.w3.org/2000/svg" viewBox="0 0 15 15" fill="currentColor"><path fill-rule="evenodd" clip-rule="evenodd" d="M0 7.5a7.5 7.5 0 1115 0V15H7.5A7.5 7.5 0 010 7.5zM4 8h1V7H4v1zm7 0h-1V7h1v1zM7 8h1V7H7v1z" fill="currentColor"/></svg>
